images/linkedin.svg

<svg xmlns="http://www.w3.org/2000/svg" width="512" height="512" viewBox="0 0 486.392 486.392"><path fill="#0077b5" d="M243.196 0C108.89 0 0 108.89 0 243.196s108.89 243.196 243.196 243.196 243.196-108.89 243.196-243.196C486.392 108.86 377.502 0 243.196 0zm-60.8 360.994H121.6V148.197h60.8v212.797zm-28.514-225.838c-15.747 0-28.484-12.768-28.484-28.515s12.768-28.512 28.484-28.512c15.747.03 28.515 12.798 28.515 28.515 0 15.748-12.768 28.516-28.515 28.516zm241.31 225.838h-60.798v-131.57c0-15.412-4.408-26.203-23.347-26.203-31.403 0-37.452 26.207-37.452 26.207v131.57h-60.8v-212.8h60.8v20.337c8.694-6.657 30.4-20.307 60.8-20.307 19.698 0 60.798 11.795 60.798 83.05v129.717z"/></svg>

<?xml version="1.0" encoding="iso-8859-1"?>
<!-- Generator: Adobe Illustrator 19.0.0, SVG Export Plug-In . SVG Version: 6.00 Build 0)  -->
<svg xmlns="http://www.w3.org/2000/svg" xmlns:xlink="http://www.w3.org/1999/xlink" version="1.1" id="Capa_1" x="0px" y="0px" viewBox="0 0 486.392 486.392" style="enable-background:new 0 0 486.392 486.392;" xml:space="preserve" width="512px" height="512px">
<g>
	<g>
		<g>
			<path d="M243.196,0C108.891,0,0,108.891,0,243.196s108.891,243.196,243.196,243.196     s243.196-108.891,243.196-243.196C486.392,108.861,377.501,0,243.196,0z M182.397,360.994h-60.799V148.197h60.799V360.994z      M153.882,135.156c-15.747,0-28.484-12.768-28.484-28.515s12.768-28.515,28.484-28.515c15.747,0.03,28.515,12.798,28.515,28.515     C182.397,122.388,169.629,135.156,153.882,135.156z M395.193,360.994h-60.799V229.425c0-15.413-4.408-26.204-23.347-26.204     c-31.403,0-37.452,26.204-37.452,26.204v131.569h-60.799V148.197h60.799v20.337c8.694-6.657,30.399-20.307,60.799-20.307     c19.699,0,60.799,11.795,60.799,83.051V360.994z" fill="#0077b5"/>
		</g>
	</g>
	<g>
	</g>
	<g>
	</g>
	<g>
	</g>
	<g>
	</g>
	<g>
	</g>
	<g>
	</g>
	<g>
	</g>
	<g>
	</g>
	<g>
	</g>
	<g>
	</g>
	<g>
	</g>
	<g>
	</g>
	<g>
	</g>
	<g>
	</g>
	<g>
	</g>
</g>
<g>
</g>
<g>
</g>
<g>
</g>
<g>
</g>
<g>
</g>
<g>
</g>
<g>
</g>
<g>
</g>
<g>
</g>
<g>
</g>
<g>
</g>
<g>
</g>
<g>
</g>
<g>
</g>
<g>
</g>
</svg>
